templates/expertInfos_av/_sources/faicon-linkedin.svg

<?xml version="1.0" encoding="utf-8"?>
<!-- Generator: Adobe Illustrator 16.0.4, SVG Export Plug-In . SVG Version: 6.00 Build 0)  -->
<!DOCTYPE svg PUBLIC "-//W3C//DTD SVG 1.1//EN" "http://www.w3.org/Graphics/SVG/1.1/DTD/svg11.dtd">
<svg version="1.1" id="Calque_1" xmlns="http://www.w3.org/2000/svg" xmlns:xlink="http://www.w3.org/1999/xlink" x="0px" y="0px"
	 width="1792px" height="1792px" viewBox="0 0 1792 1792" enable-background="new 0 0 1792 1792" xml:space="preserve">
<rect fill="none" stroke="#000000" stroke-miterlimit="10" width="1792" height="1792"/>
<path d="M477,625v991H147V625H477z M498,319c0.667,48.667-16.167,89.333-50.5,122S368,490,312,490h-2
	c-54.667,0-98.667-16.333-132-49s-50-73.333-50-122c0-49.333,17.167-90.167,51.5-122.5S258.667,148,314,148s99.667,16.167,133,48.5
	S497.333,269.667,498,319z M1664,1048v568h-329v-530c0-70-13.5-124.833-40.5-164.5S1225.333,862,1168,862
	c-42,0-77.167,11.5-105.5,34.5S1013,948,999,982c-7.333,20-11,47-11,81v553H659c1.333-266,2-481.667,2-647s-0.333-264-1-296l-1-48
	h329v144h-2c13.333-21.333,27-40,41-56s32.833-33.333,56.5-52s52.667-33.167,87-43.5S1243,602,1285,602
	c114,0,205.667,37.833,275,113.5S1664,902,1664,1048z"/>
</svg>

<svg width="1792" height="1792" viewBox="0 0 1792 1792" xmlns="http://www.w3.org/2000/svg"><path d="M477 625v991h-330v-991h330zm21-306q1 73-50.5 122t-135.5 49h-2q-82 0-132-49t-50-122q0-74 51.5-122.5t134.5-48.5 133 48.5 51 122.5zm1166 729v568h-329v-530q0-105-40.5-164.5t-126.5-59.5q-63 0-105.5 34.5t-63.5 85.5q-11 30-11 81v553h-329q2-399 2-647t-1-296l-1-48h329v144h-2q20-32 41-56t56.5-52 87-43.5 114.5-15.5q171 0 275 113.5t104 332.5z"/></svg>
